X:12
T:Why should we be dullards - olver
C:Taken down from J. Olver, by F.W.B.
%%VWML:SBG-1-1-233-0
F:http://www.vwml.org/record/SBG/1/1/233
Z:Original Sibleius Transcription by Martin and Shan Graebe
M:6/8
L:1/8
K:Eb
B2 AG2A | B2 B (Be2) | e2ed2c |{cd} (c3B3) | B2 B cB>A |G2 A(B2B) | c2 B AGF | E3E3 |
 ||:G2 AB2A |G2 A2<B2 | e2 ed2c | c/d/c3 B2 | B2 B cBA |G2 AB2B | c2 B AGF | E3E2 :||
T:Why should we be dullards - fry
T:Taken down by Edm. Fry, by F.W.B.
M:6/8
L:1/8
K:Eb
B2 Bd2d | G2 G2<B2 | B=A B fed | d3c3 | dcBe2e |=edcf2F | f2 ed2c | B3B3 | 
||:G2 AB2A |G2 A2<B2 | e2 ed2c | c3B3 | B2 B cBA |G2 AB2B | c2 BA2F | E3E3 :||
T:Why should we be dullards - calliope
T:From “Calliope”  Lond. 1788. same in Davidson’s “Universal Melodist” 1847. I. p. 246.
M:6/8
L:1/8
K:D
A2 AA2G | F2 GA2z | (Bc) d2 (dc)B |B3 A3 |A2A A2 G | F2G A2A | 
(AB)G (FG)E | D3 D3 ||c2d e2 A | c2d efg | f2d d2  d2 | (c2 B)A2z |
 d2dc2B|c2de2e|e2d (cB)c|d3d2c/B/|"Chorus"A2AA2G|F2GA2z|
Bcd2dcB|PB3A3|A2AA2G|F2GA2A|(AB)G FGE|D3D3||
T:Why should we be dullards - social powers
T:“The Social Powers”​From a copperplate engraved sheet song circ. 1765. 
M:6/8
L:1/8
K:F
(cd)c (cd)c | A2 Bc2z | (cd)c fed|d3c3|(cd)c (cd)c|
A2Bc2c|(cd)c (BA)G | F3F3:||:f2f (fe)d|e2fg2z|
(fg)f (ag)f|g3c3|f2f (fe)d|e2fg2c|a2ff2B|d3f3:||
W:This song referred to by Hannah More in “The Two Shoemakers” 6th Pt. “Stock : 
W:As I passed by the Grey Hound last night ….. I caught one verse of a song which the club was singing. 
W:Bring the flask, the music bring / Joy shall quickly find us &c.”


